X:241
T: Házunk előtt, kedves édesanyám
M:1/4
L:1/4
K:Bb
ccB<G |c/c/F/G/ F<E | G/G/F/E/ | D<C C z |
c<cBG |c/c/F/G/ F<E | G/G/F/E/ | D<C C z |
e e d c | B<B G<E | c/e/d/c/ G z |
ccBG |c/c/F/G/ F<E | G/G/F/E/ | D<C C z |


